static/img/svg/terminal.svg

<svg xmlns="http://www.w3.org/2000/svg" width="24" height="24" viewBox="0 0 24 24"><path d="M12.002 13.99l6 .01-.003 2-6-.01zM7.707 15.707l3-3a.999.999 0 0 0 0-1.414l-3-3-1.414 1.414L8.586 12l-2.293 2.293 1.414 1.414z"/><path d="M21 4.077H3a1 1 0 0 0-1 1v13.917a1 1 0 0 0 1 1h18a1 1 0 0 0 1-1V5.077a1 1 0 0 0-1-1zm-1 13.917H4V6.077h16v11.917z"/></svg>

<svg xmlns="http://www.w3.org/2000/svg" width="24" height="24" viewBox="0 0 24 24"><path transform="translate(.024 -.024)" d="M12 13.995H18V15.995H12z"/><path d="M7.707,15.707l3-3c0.391-0.391,0.391-1.023,0-1.414l-3-3L6.293,9.707L8.586,12l-2.293,2.293L7.707,15.707z"/><path d="M21,4.077H3c-0.553,0-1,0.447-1,1v13.917c0,0.553,0.447,1,1,1h18c0.553,0,1-0.447,1-1V5.077 C22,4.524,21.553,4.077,21,4.077z M20,17.994H4V6.077h16V17.994z"/></svg>
